docs/assets/css/discord-logo.svg

<?xml version="1.0" encoding="UTF-8"?>
<svg xmlns="http://www.w3.org/2000/svg" xmlns:xlink="http://www.w3.org/1999/xlink" width="200px" height="200px" viewBox="0 0 200 100" version="1.1">
<g id="surface1">
<path style=" stroke:none;fill-rule:nonzero;fill:rgb(13.72549%,15.294118%,16.470588%);fill-opacity:1;" d="M 130.367188 10.6875 C 120.550781 6.15625 110.027344 2.816406 99.019531 0.90625 C 98.820312 0.871094 98.621094 0.960938 98.515625 1.144531 C 97.164062 3.566406 95.664062 6.726562 94.613281 9.210938 C 82.777344 7.429688 71 7.429688 59.40625 9.210938 C 58.355469 6.671875 56.804688 3.566406 55.445312 1.144531 C 55.339844 0.96875 55.140625 0.875 54.941406 0.90625 C 43.941406 2.8125 33.414062 6.148438 23.59375 10.6875 C 23.507812 10.722656 23.4375 10.785156 23.386719 10.863281 C 3.421875 40.867188 -2.046875 70.132812 0.636719 99.035156 C 0.648438 99.175781 0.726562 99.3125 0.835938 99.398438 C 14.007812 109.128906 26.769531 115.035156 39.292969 118.953125 C 39.492188 119.011719 39.703125 118.9375 39.832031 118.773438 C 42.792969 114.703125 45.433594 110.414062 47.699219 105.902344 C 47.832031 105.636719 47.703125 105.324219 47.429688 105.21875 C 43.242188 103.621094 39.253906 101.671875 35.417969 99.460938 C 35.113281 99.28125 35.089844 98.84375 35.371094 98.636719 C 36.175781 98.027344 36.984375 97.394531 37.753906 96.753906 C 37.894531 96.636719 38.089844 96.613281 38.253906 96.6875 C 63.457031 108.261719 90.742188 108.261719 115.648438 96.6875 C 115.8125 96.609375 116.003906 96.632812 116.152344 96.75 C 116.921875 97.386719 117.730469 98.027344 118.542969 98.636719 C 118.820312 98.84375 118.804688 99.28125 118.5 99.460938 C 114.664062 101.714844 110.675781 103.621094 106.480469 105.214844 C 106.207031 105.316406 106.085938 105.636719 106.21875 105.902344 C 108.53125 110.40625 111.171875 114.699219 114.082031 118.765625 C 114.203125 118.9375 114.421875 119.011719 114.621094 118.953125 C 127.203125 115.035156 139.964844 109.128906 153.136719 99.398438 C 153.25 99.3125 153.324219 99.183594 153.335938 99.042969 C 156.546875 65.628906 147.957031 36.601562 130.566406 10.871094 C 130.523438 10.785156 130.453125 10.722656 130.367188 10.6875 Z M 51.460938 81.4375 C 43.875 81.4375 37.621094 74.429688 37.621094 65.824219 C 37.621094 57.21875 43.753906 50.210938 51.460938 50.210938 C 59.230469 50.210938 65.421875 57.28125 65.300781 65.824219 C 65.300781 74.429688 59.171875 81.4375 51.460938 81.4375 Z M 102.632812 81.4375 C 95.046875 81.4375 88.792969 74.429688 88.792969 65.824219 C 88.792969 57.21875 94.925781 50.210938 102.632812 50.210938 C 110.402344 50.210938 116.59375 57.28125 116.472656 65.824219 C 116.472656 74.429688 110.402344 81.4375 102.632812 81.4375 Z M 102.632812 81.4375 "/>
</g>
</svg>

<svg xmlns="http://www.w3.org/2000/svg" width="200" height="200" viewBox="0 0 200 100"><path style="stroke:none;fill-rule:nonzero;fill:#23272a;fill-opacity:1" d="M130.367 10.688A126.341 126.341 0 0 0 99.02.905a.48.48 0 0 0-.504.239c-1.352 2.421-2.852 5.582-3.903 8.066C82.777 7.43 71 7.43 59.406 9.21c-1.05-2.54-2.601-5.645-3.96-8.066a.498.498 0 0 0-.505-.239 126.005 126.005 0 0 0-31.347 9.781.453.453 0 0 0-.207.176C3.422 40.867-2.047 70.133.637 99.035a.53.53 0 0 0 .199.363c13.172 9.73 25.934 15.637 38.457 19.555.2.059.41-.016.539-.18a92.268 92.268 0 0 0 7.867-12.87.494.494 0 0 0-.27-.684c-4.187-1.598-8.175-3.547-12.011-5.758a.497.497 0 0 1-.047-.824 66.385 66.385 0 0 0 2.383-1.883.476.476 0 0 1 .5-.067c25.203 11.575 52.488 11.575 77.394 0a.476.476 0 0 1 .504.063 64.66 64.66 0 0 0 2.391 1.887.499.499 0 0 1-.043.824 78.998 78.998 0 0 1-12.02 5.754.494.494 0 0 0-.261.687 102.785 102.785 0 0 0 7.863 12.864c.121.171.34.246.54.187 12.581-3.918 25.343-9.824 38.515-19.555a.502.502 0 0 0 .199-.355c3.21-33.414-5.379-62.441-22.77-88.172a.38.38 0 0 0-.199-.184Zm-78.906 70.75c-7.586 0-13.84-7.008-13.84-15.614 0-8.605 6.133-15.613 13.84-15.613 7.77 0 13.96 7.07 13.84 15.613 0 8.606-6.13 15.614-13.84 15.614Zm51.172 0c-7.586 0-13.84-7.008-13.84-15.614 0-8.605 6.133-15.613 13.84-15.613 7.77 0 13.96 7.07 13.84 15.613 0 8.606-6.07 15.614-13.84 15.614Zm0 0"/></svg>
